icon-themes/breeze_svg/res/ott_16_8.svg

<?xml version="1.0" encoding="UTF-8" standalone="no"?>
<!-- Created with Inkscape (http://www.inkscape.org/) -->

<svg
   xmlns:dc="http://purl.org/dc/elements/1.1/"
   xmlns:cc="http://creativecommons.org/ns#"
   xmlns:rdf="http://www.w3.org/1999/02/22-rdf-syntax-ns#"
   xmlns:svg="http://www.w3.org/2000/svg"
   xmlns="http://www.w3.org/2000/svg"
   xmlns:sodipodi="http://sodipodi.sourceforge.net/DTD/sodipodi-0.dtd"
   xmlns:inkscape="http://www.inkscape.org/namespaces/inkscape"
   width="16"
   height="16"
   id="svg2"
   version="1.1"
   inkscape:version="0.91 r13725"
   viewBox="0 0 16 16"
   sodipodi:docname="ott_16_8.svg">
  <defs
     id="defs4" />
  <sodipodi:namedview
     id="base"
     pagecolor="#ffffff"
     bordercolor="#666666"
     borderopacity="1.0"
     inkscape:pageopacity="0.0"
     inkscape:pageshadow="2"
     inkscape:zoom="31.678384"
     inkscape:cx="2.0319149"
     inkscape:cy="6.5518574"
     inkscape:document-units="px"
     inkscape:current-layer="layer1"
     showgrid="true"
     inkscape:showpageshadow="false"
     borderlayer="true"
     units="px"
     inkscape:window-width="1920"
     inkscape:window-height="1051"
     inkscape:window-x="-4"
     inkscape:window-y="0"
     inkscape:window-maximized="1">
    <inkscape:grid
       type="xygrid"
       id="grid4062" />
    <sodipodi:guide
       position="2,14.000017"
       orientation="12,0"
       id="guide4066" />
    <sodipodi:guide
       position="2,2.0000174"
       orientation="0,12"
       id="guide4068" />
    <sodipodi:guide
       position="14,2.0000174"
       orientation="-12,0"
       id="guide4070" />
    <sodipodi:guide
       position="14,14.000017"
       orientation="0,-12"
       id="guide4072" />
  </sodipodi:namedview>
  <metadata
     id="metadata7">
    <rdf:RDF>
      <cc:Work
         rdf:about="">
        <dc:format>image/svg+xml</dc:format>
        <dc:type
           rdf:resource="http://purl.org/dc/dcmitype/StillImage" />
        <dc:title />
      </cc:Work>
    </rdf:RDF>
  </metadata>
  <g
     inkscape:label="Capa 1"
     inkscape:groupmode="layer"
     id="layer1"
     transform="translate(0,-1036.3622)">
    <g
       id="layer1-9"
       inkscape:label="Capa 1"
       style="fill:#b3b3b3;fill-opacity:1">
      <path
         id="rect4020"
         transform="translate(0,1036.3622)"
         d="M 2,2 2,3 8,3 8,2 2,2 Z M 2,5 2,6 14,6 14,5 2,5 Z M 2,8 2,9 7,9 7,8 2,8 Z m 6,0 0,6 6,0 0,-6 -6,0 z m 1,1 4,0 0,4 -4,0 0,-4 z m -7,1 0,1 5,0 0,-1 -5,0 z m 0,3 0,1 5,0 0,-1 -5,0 z"
         style="color:#000000;display:inline;overflow:visible;visibility:visible;fill:#b3b3b3;fill-opacity:1;fill-rule:nonzero;stroke:none;stroke-width:1.39999998;marker:none;enable-background:accumulate"
         inkscape:connector-curvature="0" />
    </g>
  </g>
</svg>

<svg xmlns="http://www.w3.org/2000/svg" viewBox="0 0 16 16">
 <path 
     style="fill:#b3b3b3" 
     d="M 2 2 L 2 3 L 8 3 L 8 2 L 2 2 z M 2 5 L 2 6 L 14 6 L 14 5 L 2 5 z M 2 8 L 2 9 L 7 9 L 7 8 L 2 8 z M 8 8 L 8 14 L 14 14 L 14 8 L 8 8 z M 9 9 L 13 9 L 13 13 L 9 13 L 9 9 z M 2 10 L 2 11 L 7 11 L 7 10 L 2 10 z M 2 13 L 2 14 L 7 14 L 7 13 L 2 13 z "
     />
 </svg>
